X:3604
T: Gang the Same Gate
N: 8 x 32S 3C (RSCDS Bk. 36)
%
T: Mrs. Dalzell
C: Nathaniel Gow, arr. T. Traub 5-17-2000
R: Strathspey
M: 4/4
%--------------------
K: Eb
L: 1/8
|: c|"Eb"B<GF>E E2 G>E|"Eb"E/F/G F>E "Ab"C3 c|"Eb"B<G"Fm"F>E "Cm"G2 e>E|"Eb"G2 "Bb7"F>E "Eb"E3 :|
B|"Eb"e>f gg g2 fe|"Eb"ga/g/ g/f/e/d/ "Ab"c3 d|"Eb"e>f ge "Ab"c2 a>g|"Bb7"f>e d/e/f/g/ "Eb"e3 B|
"Cm"e2 GA/B/ "Ab"c2 "Bb"FG/A/|"Eb"B<GF>E "Ab"C3 c|"Eb"B<GF>E "Cm"G2 e>E|"Ab"G2 "Bb"F>E "Eb"E3 |]
